src/assets/svg/game-audio-call/birds.svg

<svg width="20" height="21" viewBox="0 0 20 21" fill="none" xmlns="http://www.w3.org/2000/svg">
<circle cx="10" cy="10.5" r="10" fill="#44B9B9"/>
<path d="M8.29515 16C8.05503 16 7.82691 15.8772 7.65883 15.6624L4.26113 11.3191C3.91296 10.8741 3.91296 10.1374 4.26113 9.69236C4.6093 9.2473 5.18559 9.2473 5.53377 9.69236L8.29515 13.2222L14.4662 5.3338C14.8144 4.88873 15.3907 4.88873 15.7389 5.3338C16.087 5.77886 16.087 6.51552 15.7389 6.96059L8.93147 15.6624C8.76338 15.8772 8.53527 16 8.29515 16Z" fill="white"/>
</svg>

<svg width="20" height="21" fill="none" xmlns="http://www.w3.org/2000/svg"><circle cx="10" cy="10.5" r="10" fill="#44B9B9"/><path d="M8.295 16c-.24 0-.468-.123-.636-.338L4.26 11.32c-.348-.445-.348-1.182 0-1.627.348-.445.925-.445 1.273 0l2.761 3.53 6.171-7.888c.348-.445.925-.445 1.273 0 .348.445.348 1.182 0 1.627L8.93 15.662c-.168.215-.396.338-.636.338z" fill="#fff"/></svg>
